lib/preview/nrk-logo-preview-nrk-tv-title-below-on-dark.svg

<svg width="35" height="31" viewBox="0 0 35 31" fill="none" xmlns="http://www.w3.org/2000/svg">
<path d="M0 13.0007V1.00182H3.93719V13.0007H0ZM9.29381 2.91151L11.5581 13.0007H7.24917L4.54549 1.00182H6.96218C7.51635 0.99463 8.05406 1.18998 8.4745 1.55112C8.89562 1.89711 9.18495 2.37743 9.29381 2.91151ZM12.1495 13.0007V1.00182H16.0867V13.0007H12.1495ZM19.0605 5.56483C18.6362 5.56897 18.2188 5.45796 17.8525 5.2437C17.4912 5.03485 17.1911 4.73469 16.9823 4.37333C16.7678 4.00706 16.6568 3.58949 16.661 3.16505C16.6561 2.74319 16.7672 2.32811 16.9823 1.96516C17.1933 1.60772 17.4931 1.31083 17.8525 1.10325C18.2189 0.889235 18.6362 0.778247 19.0605 0.782116C19.4822 0.777574 19.8971 0.888661 20.2602 1.10325C20.616 1.31265 20.9127 1.60929 21.122 1.96516C21.3368 2.32821 21.4479 2.74323 21.4433 3.16505C21.4473 3.58946 21.3363 4.00696 21.122 4.37333C20.9149 4.73311 20.6179 5.03301 20.2602 5.2437C19.8971 5.45871 19.4819 5.56982 19.0599 5.56483H19.0605ZM22.0516 13.0007V1.00182H25.9892V13.0007H22.0516ZM30.9737 7.55897C30.9848 7.57061 31.0693 7.70862 31.2272 7.973C31.3851 8.23739 31.5906 8.57542 31.8439 8.98702C32.0974 9.39844 32.3649 9.83499 32.6463 10.2967C32.9278 10.7585 33.1926 11.1951 33.4408 11.6065C33.6881 12.0179 33.9697 12.4827 34.2857 13.0007H29.9598C29.6893 12.5613 29.4441 12.1642 29.2245 11.8093C29.0048 11.4544 28.7713 11.0713 28.5238 10.6601C28.2758 10.2492 28.0306 9.84927 27.7882 9.4602C27.5458 9.07113 27.3375 8.73035 27.1633 8.43779C26.9883 8.14505 26.8671 7.94786 26.7997 7.84627C26.6325 7.59418 26.5336 7.30303 26.5127 7.00128C26.5294 6.71167 26.6226 6.43171 26.7828 6.18984C26.8504 6.07718 26.9743 5.87716 27.1545 5.58986C27.3348 5.30257 27.546 4.96179 27.7882 4.56746C28.0304 4.17313 28.2756 3.77034 28.5238 3.35911C28.772 2.94788 29.0056 2.56197 29.2245 2.20144C29.4445 1.84128 29.6897 1.44132 29.9598 1.00155H34.2857L30.9396 6.46023C30.8361 6.6223 30.7777 6.80908 30.7706 7.00128C30.7818 7.20306 30.8522 7.39705 30.9731 7.55897H30.9737Z" fill="white"/>
<path d="M0 19.6484H3.89621V30.1251H5.68268V19.6484H9.56189V18.1661H0V19.6484Z" fill="#8BB5EB"/>
<path d="M18.9536 18.1661L16.4185 25.611C16.2932 25.9928 16.1655 26.3971 16.0354 26.8238C15.9054 27.2505 15.7807 27.6772 15.6614 28.1039C15.5996 28.3242 15.5403 28.5368 15.4836 28.7417C15.4241 28.5253 15.3614 28.3024 15.2956 28.0702C15.1703 27.6323 15.0426 27.1971 14.9125 26.7648C14.7824 26.3325 14.6492 25.9254 14.5127 25.5437L12.0286 18.1661H10.1231L14.3085 30.1251H16.5203L20.7228 18.1661H18.9536Z" fill="#8BB5EB"/>
</svg>

<svg xmlns="http://www.w3.org/2000/svg" viewBox="0 0 35 31"><path fill="#fff" d="M0 13V1.003h3.937V13H0ZM9.294 2.913 11.558 13H7.25L4.545 1h2.417a2.276 2.276 0 0 1 1.513.55c.42.346.71.826.819 1.36ZM12.149 13V1h3.938v12h-3.938Zm6.912-7.436a2.382 2.382 0 0 1-2.4-2.4 2.301 2.301 0 0 1 .321-1.2 2.41 2.41 0 0 1 3.278-.862c.356.21.653.506.862.862.215.363.326.778.321 1.2a2.35 2.35 0 0 1-.321 1.208 2.4 2.4 0 0 1-.862.87 2.302 2.302 0 0 1-1.2.322ZM22.05 13V1h3.938v12h-3.937Zm8.923-5.442c.01.012.095.15.253.414s.364.602.617 1.014a316.545 316.545 0 0 1 1.597 2.62c.247.41.529.876.845 1.394H29.96c-.27-.44-.516-.837-.736-1.192-.22-.355-.453-.738-.7-1.149a99.5 99.5 0 0 0-.736-1.2c-.242-.389-.45-.73-.625-1.022-.175-.293-.296-.49-.363-.592a1.747 1.747 0 0 1-.287-.845c.016-.29.11-.57.27-.811.067-.113.191-.313.371-.6s.392-.628.634-1.023c.242-.394.488-.797.736-1.208l.7-1.158.736-1.2h4.326l-3.346 5.46a1.08 1.08 0 0 0-.17.54c.012.202.082.396.203.558Z"/><path fill="#8BB5EB" d="M0 19.648h3.896v10.477h1.787V19.648h3.879v-1.482H0v1.482ZM18.954 18.166l-2.535 7.445a60.227 60.227 0 0 0-.758 2.493l-.177.638a89.67 89.67 0 0 0-.572-1.977c-.13-.433-.263-.84-.4-1.221l-2.483-7.378h-1.906l4.186 11.96h2.211l4.203-11.96h-1.77Z"/></svg>
